src/data/flags/maryland.svg

<svg height="500" viewBox="0 0 360 240" width="750" xmlns="http://www.w3.org/2000/svg" xmlns:xlink="http://www.w3.org/1999/xlink"><defs><path id="a" d="m0 215a32 32 0 0 0 32-32v-16h31a32 32 0 0 0 0-64h-31v-71h199v31a32 32 0 0 0 64 0v-31h28a32 32 0 0 0 32-32h-355z" transform="scale(.24)"/></defs><g id="b"><path d="m0 0h180v120h-180z"/><path d="m0 120v-100l30 20v80h30v-120h30v120h30v-120h30v120h30v-20l-150-100v40l120 80z" fill="#eaab00"/></g><g id="c"><path d="m180 0h180v120h-180z" fill="#fff"/><path d="m270 0h90v60h-180v60h90z" fill="#981e32"/><g transform="translate(270 60)"><use fill="#981e32" xlink:href="#a"/><use fill="#fff" transform="scale(-1 1)" xlink:href="#a"/><use fill="#fff" transform="scale(1 -1)" xlink:href="#a"/><use fill="#981e32" transform="scale(-1)" xlink:href="#a"/></g></g><use x="-180" xlink:href="#c" y="120"/><use x="180" xlink:href="#b" y="120"/></svg>

<svg height="500" viewBox="0 0 360 240" width="750" xmlns="http://www.w3.org/2000/svg" xmlns:xlink="http://www.w3.org/1999/xlink"><defs><path id="a" d="M0 215a32 32 0 0 0 32-32v-16h31a32 32 0 0 0 0-64H32V32h199v31a32 32 0 0 0 64 0V32h28a32 32 0 0 0 32-32H0z" transform="scale(.24)"/></defs><g id="c"><path d="M0 0h180v120H0z"/><path d="M0 120V20l30 20v80h30V0h30v120h30V0h30v120h30v-20L30 0v40l120 80z" fill="#eaab00"/></g><g id="b"><path d="M180 0h180v120H180z" fill="#fff"/><path d="M270 0h90v60H180v60h90z" fill="#981e32"/><g transform="translate(270 60)"><use fill="#981e32" xlink:href="#a"/><use fill="#fff" transform="scale(-1 1)" xlink:href="#a"/><use fill="#fff" transform="scale(1 -1)" xlink:href="#a"/><use fill="#981e32" transform="scale(-1)" xlink:href="#a"/></g></g><use x="-180" xlink:href="#b" y="120"/><use x="180" xlink:href="#c" y="120"/></svg>
